icons/law-16.svg

<svg width="16" height="16" viewBox="0 0 16 16" xmlns="http://www.w3.org/2000/svg">
  <path fill-rule="evenodd" clip-rule="evenodd" d="M8.75003 0.75C8.75003 0.335786 8.41424 0 8.00003 0C7.58582 0 7.25003 0.335786 7.25003 0.75V2H6.26559C5.96105 2 5.66177 2.07948 5.39735 2.23057L4.1085 2.96706C4.07073 2.98865 4.02797 3 3.98447 3H1.75003C1.33582 3 1.00003 3.33579 1.00003 3.75C1.00003 4.16421 1.33582 4.5 1.75003 4.5H2.17758L0.0660806 9.19223C-0.0617883 9.47638 -0.000641479 9.81 0.219692 10.0303L0.750022 9.5C0.219692 10.0303 0.219954 10.0306 0.220219 10.0309L0.220765 10.0314L0.221913 10.0325L0.224433 10.035L0.230373 10.0408L0.245855 10.0556C0.257778 10.0668 0.272924 10.0806 0.2913 10.0967C0.328031 10.1288 0.377797 10.17 0.440647 10.2172C0.566243 10.3114 0.744981 10.4298 0.977112 10.5458C1.44383 10.7792 2.12045 11 3.00002 11C3.8796 11 4.55622 10.7792 5.02293 10.5458C5.25506 10.4298 5.4338 10.3114 5.5594 10.2172C5.62225 10.17 5.67201 10.1288 5.70874 10.0967C5.72712 10.0806 5.74227 10.0668 5.75419 10.0556L5.76967 10.0408L5.77561 10.035L5.77813 10.0325L5.77928 10.0314L5.77982 10.0309C5.78009 10.0306 5.78035 10.0303 5.25002 9.5L5.78035 10.0303C6.00069 9.81 6.06183 9.47638 5.93396 9.19223L3.82246 4.5H3.98447C4.28901 4.5 4.58829 4.42052 4.85271 4.26943L6.14156 3.53294C6.17933 3.51135 6.22209 3.5 6.26559 3.5H7.25003V13H4.75003C4.33582 13 4.00003 13.3358 4.00003 13.75C4.00003 14.1642 4.33582 14.5 4.75003 14.5H11.25C11.6642 14.5 12 14.1642 12 13.75C12 13.3358 11.6642 13 11.25 13H8.75003V3.5H9.73447C9.77797 3.5 9.82073 3.51135 9.8585 3.53294L11.1474 4.26943C11.4118 4.42052 11.711 4.5 12.0156 4.5H12.1776L10.0661 9.19223C9.93821 9.47638 9.99936 9.81 10.2197 10.0303L10.75 9.5C10.2197 10.0303 10.22 10.0306 10.2202 10.0309L10.2208 10.0314L10.2219 10.0325L10.2244 10.035L10.2304 10.0408L10.2459 10.0556C10.2578 10.0668 10.2729 10.0806 10.2913 10.0967C10.328 10.1288 10.3778 10.17 10.4406 10.2172C10.5662 10.3114 10.745 10.4298 10.9771 10.5458C11.4438 10.7792 12.1204 11 13 11C13.8796 11 14.5562 10.7792 15.0229 10.5458C15.2551 10.4298 15.4338 10.3114 15.5594 10.2172C15.6222 10.17 15.672 10.1288 15.7087 10.0967C15.7271 10.0806 15.7423 10.0668 15.7542 10.0556L15.7638 10.0465L15.7697 10.0408L15.7756 10.035L15.7781 10.0325L15.7793 10.0314L15.7798 10.0309C15.7801 10.0306 15.7804 10.0303 15.25 9.5L15.7804 10.0303C16.0007 9.81 16.0618 9.47638 15.934 9.19223L13.8225 4.5H14.25C14.6642 4.5 15 4.16421 15 3.75C15 3.33579 14.6642 3 14.25 3H12.0156C11.9721 3 11.9293 2.98865 11.8916 2.96706L10.6027 2.23057C10.3383 2.07948 10.039 2 9.73447 2H8.75003V0.75ZM1.69523 9.22719C1.9801 9.36201 2.41307 9.5 3.00002 9.5C3.58698 9.5 4.01994 9.36201 4.30482 9.22719L3.00002 6.32764L1.69523 9.22719ZM11.6952 9.22719C11.9801 9.36201 12.4131 9.5 13 9.5C13.587 9.5 14.0199 9.36201 14.3048 9.22719L13 6.32764L11.6952 9.22719Z"/>
</svg>

<svg xmlns="http://www.w3.org/2000/svg" width="16" height="16" viewBox="0 0 16 16"><path fill-rule="evenodd" d="M8.75.75a.75.75 0 00-1.5 0V2h-.984c-.305 0-.604.08-.869.23l-1.288.737A.25.25 0 013.984 3H1.75a.75.75 0 000 1.5h.428L.066 9.192a.75.75 0 00.154.838l.53-.53-.53.53v.001l.002.002.002.002.006.006.016.015.045.04a3.514 3.514 0 00.686.45A4.492 4.492 0 003 11c.88 0 1.556-.22 2.023-.454a3.515 3.515 0 00.686-.45l.045-.04.016-.015.006-.006.002-.002.001-.002L5.25 9.5l.53.53a.75.75 0 00.154-.838L3.822 4.5h.162c.305 0 .604-.08.869-.23l1.289-.737a.25.25 0 01.124-.033h.984V13h-2.5a.75.75 0 000 1.5h6.5a.75.75 0 000-1.5h-2.5V3.5h.984a.25.25 0 01.124.033l1.29.736c.264.152.563.231.868.231h.162l-2.112 4.692a.75.75 0 00.154.838l.53-.53-.53.53v.001l.002.002.002.002.006.006.016.015.045.04a3.517 3.517 0 00.686.45A4.492 4.492 0 0013 11c.88 0 1.556-.22 2.023-.454a3.512 3.512 0 00.686-.45l.045-.04.01-.01.006-.005.006-.006.002-.002.001-.002-.529-.531.53.53a.75.75 0 00.154-.838L13.823 4.5h.427a.75.75 0 000-1.5h-2.234a.25.25 0 01-.124-.033l-1.29-.736A1.75 1.75 0 009.735 2H8.75V.75zM1.695 9.227c.285.135.718.273 1.305.273s1.02-.138 1.305-.273L3 6.327l-1.305 2.9zm10 0c.285.135.718.273 1.305.273s1.02-.138 1.305-.273L13 6.327l-1.305 2.9z"/></svg>
